;FLAVOR:Marlin
;TIME:4264
;Filament used: 2.12937m
;Layer height: 0.1
;Generated with Cura_SteamEngine DEV
M190 S60
M104 S200
M109 S200
M82 ;absolute extrusion mode
M104 S200 ; set final nozzle temp
M190 S60 ; set and wait for nozzle temp to stabilize
M109 S200 ; wait for nozzle temp to stabilize
G28 ;Home
G1 E10 F3600; push out retracted filament(fix for over retraction after prime)
G92 E0
G1 F3600 E-1.5
;LAYER_COUNT:99
;LAYER:0
M107
G0 F3600 X83.872 Y81.31 Z0.3
;TYPE:SKIRT
G1 F3600 E0
G1 F1800 X84.265 Y80.945 E0.02676
G1 X84.708 Y80.643 E0.05351
G1 X85.191 Y80.409 E0.08028
G1 X85.703 Y80.251 E0.10702
G1 X86.233 Y80.17 E0.13376
G1 X86.511 Y80.159 E0.14764
G1 X103.518 Y80.162 E0.99613
G1 X103.939 Y80.187 E1.01717
G1 X107.985 Y80.665 E1.22043
G1 X113.44 Y81.051 E1.49326
G1 X118.899 Y81.129 E1.76564
G1 X124.337 Y80.898 E2.03719
G1 X131.123 Y80.18 E2.37763
G1 X131.502 Y80.16 E2.39656
G1 X148.491 Y80.159 E3.24415
G1 X149.026 Y80.199 E3.27092
G1 X149.549 Y80.318 E3.29767
G1 X150.048 Y80.513 E3.3244
G1 X150.513 Y80.78 E3.35115
G1 X150.933 Y81.114 E3.37793
G1 X151.299 Y81.506 E3.40468
G1 X151.602 Y81.948 E3.43142
G1 X151.837 Y82.43 E3.45817
G1 X151.997 Y82.942 E3.48493
G1 X152.08 Y83.472 E3.5117
G1 X152.091 Y83.761 E3.52613
G1 X152.089 Y87.763 E3.72579
G1 X152.053 Y88.266 E3.75095
G1 X151.716 Y90.642 E3.87067
G1 X151.171 Y96.093 E4.14398
G1 X150.935 Y101.549 E4.41643
G1 X151.009 Y107.009 E4.68886
G1 X151.391 Y112.456 E4.96128
G1 X152.074 Y118.151 E5.24744
G1 X152.1 Y118.594 E5.26958
G1 X152.086 Y122.264 E5.45268
G1 X152.044 Y122.798 E5.4794
G1 X151.923 Y123.321 E5.50618
G1 X151.726 Y123.82 E5.53295
G1 X151.457 Y124.283 E5.55966
G1 X151.004 Y124.823 E5.59483
G1 X147.919 Y127.841 E5.81014
G1 X144.205 Y131.842 E6.0825
G1 X140.723 Y136.047 E6.35487
G1 X137.487 Y140.441 E6.62712
G1 X133.728 Y146.226 E6.97132
G1 X133.578 Y146.44 E6.98435
G1 X132.604 Y147.725 E7.0648
G1 X132.374 Y147.999 E7.08265
G1 X131.333 Y149.121 E7.15901
G1 X131.084 Y149.364 E7.17636
G1 X129.901 Y150.414 E7.25528
G1 X129.619 Y150.64 E7.27331
G1 X128.289 Y151.601 E7.35517
G1 X127.984 Y151.799 E7.37331
G1 X126.619 Y152.589 E7.452
G1 X126.305 Y152.751 E7.46962
G1 X124.907 Y153.386 E7.54623
G1 X124.584 Y153.514 E7.56356
G1 X123.088 Y154.026 E7.64245
G1 X122.743 Y154.125 E7.66035
G1 X121.159 Y154.496 E7.74152
G1 X120.808 Y154.56 E7.75932
G1 X119.351 Y154.752 E7.83264
G1 X119.014 Y154.781 E7.84951
G1 X117.416 Y154.84 E7.92929
G1 X117.06 Y154.835 E7.94705
G1 X115.513 Y154.739 E8.02438
G1 X115.069 Y154.684 E8.0467
G1 X112.678 Y154.233 E8.16809
G1 X112.245 Y154.123 E8.19038
G1 X110.805 Y153.661 E8.26583
G1 X110.485 Y153.541 E8.28288
G1 X109.094 Y152.944 E8.3584
G1 X108.787 Y152.795 E8.37543
G1 X107.426 Y152.051 E8.45281
G1 X107.122 Y151.865 E8.47059
G1 X105.8 Y150.962 E8.55046
G1 X105.515 Y150.745 E8.56833
G1 X104.292 Y149.717 E8.64804
G1 X104.029 Y149.472 E8.66597
G1 X102.925 Y148.338 E8.74493
G1 X102.691 Y148.074 E8.76253
G1 X101.715 Y146.852 E8.84056
G1 X101.511 Y146.57 E8.85792
G1 X97.475 Y140.374 E9.22684
G1 X94.254 Y136.007 E9.49756
G1 X90.743 Y131.771 E9.77205
G1 X88.968 Y129.803 E9.90427
G1 X83.962 Y124.788 E10.25779
G1 X83.613 Y124.382 E10.2845
G1 X83.327 Y123.927 E10.31131
G1 X83.113 Y123.436 E10.33803
G1 X82.973 Y122.918 E10.3648
G1 X82.91 Y122.245 E10.39853
G1 X82.91 Y118.26 E10.59734
G1 X82.939 Y117.807 E10.61998
G1 X83.595 Y112.629 E10.88038
G1 X83.985 Y107.18 E11.15293
G1 X84.067 Y101.721 E11.42531
G1 X83.839 Y96.282 E11.6969
G1 X83.299 Y90.805 E11.97147
G1 X82.928 Y87.868 E12.11917
G1 X82.9 Y87.406 E12.14226
G1 X82.91 Y83.749 E12.32471
G1 X82.951 Y83.214 E12.35148
G1 X83.072 Y82.692 E12.37821
G1 X83.268 Y82.193 E12.40496
G1 X83.537 Y81.729 E12.43171
G1 X83.872 Y81.31 E12.45848
G0 F3600 X84.266 Y81.478
G1 F1800 X84.653 Y81.153 E12.48369
G1 X85.087 Y80.893 E12.50893
G1 X85.556 Y80.705 E12.53414
G1 X86.049 Y80.592 E12.55937
G1 X86.511 Y80.559 E12.58248
G1 X103.518 Y80.562 E13.43096
G1 X103.892 Y80.584 E13.44966
G1 X107.953 Y81.063 E13.65366
G1 X113.423 Y81.451 E13.92725
G1 X118.91 Y81.529 E14.20102
G1 X124.364 Y81.297 E14.47337
G1 X131.165 Y80.578 E14.81457
G1 X131.502 Y80.56 E14.8314
G1 X148.491 Y80.559 E15.67899
G1 X148.995 Y80.599 E15.70421
G1 X149.486 Y80.718 E15.72942
G1 X149.953 Y80.912 E15.75465
G1 X150.383 Y81.178 E15.77987
G1 X150.766 Y81.508 E15.80509
G1 X151.092 Y81.895 E15.83034
G1 X151.353 Y82.328 E15.85556
G1 X151.543 Y82.796 E15.88076
G1 X151.656 Y83.289 E15.90599
G1 X151.691 Y83.761 E15.92961
G1 X151.689 Y87.763 E16.12927
G1 X151.657 Y88.21 E16.15163
G1 X151.319 Y90.596 E16.27185
G1 X150.771 Y96.071 E16.54637
G1 X150.535 Y101.537 E16.81932
G1 X150.609 Y107.025 E17.09314
G1 X150.993 Y112.492 E17.36656
G1 X151.677 Y118.199 E17.65333
G1 X151.7 Y118.592 E17.67297
G1 X151.686 Y122.262 E17.85606
G1 X151.644 Y122.766 E17.8813
G1 X151.523 Y123.257 E17.90653
G1 X151.327 Y123.723 E17.93175
G1 X151.06 Y124.152 E17.95696
G1 X150.724 Y124.537 E17.98245
G1 X147.639 Y127.555 E18.19776
G1 X143.906 Y131.576 E18.47149
G1 X140.408 Y135.8 E18.74511
G1 X137.156 Y140.216 E19.01872
G1 X133.392 Y146.009 E19.36338
G1 X133.259 Y146.198 E19.37491
G1 X132.285 Y147.483 E19.45536
G1 X132.081 Y147.726 E19.47119
G1 X131.04 Y148.848 E19.54754
G1 X130.818 Y149.065 E19.56303
G1 X129.635 Y150.115 E19.64195
G1 X129.385 Y150.316 E19.65795
G1 X128.055 Y151.277 E19.73981
G1 X127.784 Y151.453 E19.75594
G1 X126.419 Y152.243 E19.83462
G1 X126.139 Y152.387 E19.85033
G1 X124.741 Y153.022 E19.92693
G1 X124.454 Y153.136 E19.94234
G1 X122.958 Y153.648 E20.02122
G1 X122.652 Y153.736 E20.03711
G1 X121.068 Y154.107 E20.11827
G1 X120.756 Y154.164 E20.1341
G1 X119.299 Y154.356 E20.20742
G1 X118.999 Y154.381 E20.22243
G1 X117.401 Y154.44 E20.30221
G1 X117.085 Y154.436 E20.31798
G1 X115.538 Y154.34 E20.39531
G1 X115.143 Y154.291 E20.41517
G1 X112.752 Y153.84 E20.53656
G1 X112.367 Y153.742 E20.55638
G1 X110.927 Y153.28 E20.63183
G1 X110.643 Y153.174 E20.64695
G1 X109.252 Y152.577 E20.72247
G1 X108.979 Y152.444 E20.73762
G1 X107.618 Y151.7 E20.815
G1 X107.348 Y151.534 E20.83082
G1 X106.026 Y150.631 E20.91069
G1 X105.772 Y150.439 E20.92657
G1 X104.549 Y149.411 E21.00628
G1 X104.315 Y149.193 E21.02224
G1 X103.211 Y148.059 E21.10119
G1 X103.004 Y147.824 E21.11682
G1 X102.028 Y146.602 E21.19484
G1 X101.847 Y146.352 E21.21024
G1 X97.805 Y140.147 E21.5797
G1 X94.569 Y135.758 E21.85175
G1 X91.053 Y131.517 E22.12659
G1 X89.266 Y129.536 E22.25969
G1 X84.245 Y124.506 E22.61427
G1 X83.917 Y124.121 E22.6395
G1 X83.654 Y123.689 E22.66473
G1 X83.463 Y123.221 E22.68995
G1 X83.347 Y122.729 E22.71517
G1 X83.31 Y122.245 E22.73939
G1 X83.31 Y118.26 E22.9382
G1 X83.335 Y117.858 E22.9583
G1 X83.994 Y112.656 E23.2199
G1 X84.385 Y107.197 E23.49295
G1 X84.467 Y101.71 E23.76673
G1 X84.239 Y96.261 E24.03881
G1 X83.696 Y90.747 E24.31524
G1 X83.325 Y87.817 E24.46259
G1 X83.3 Y87.407 E24.48308
G1 X83.31 Y83.75 E24.66553
G1 X83.351 Y83.246 E24.69076
G1 X83.471 Y82.755 E24.71597
G1 X83.667 Y82.289 E24.74119
G1 X83.934 Y81.86 E24.7664
G1 X84.266 Y81.478 E24.79165
G1 F3600 E23.29165
G0 F3600 X87.114 Y83.085
G0 X87.114 Y84.364
G0 X102.872 Y84.378
G0 X102.879 Y101.486
G0 X103.146 Y103.623
G0 X103.722 Y105.698
G0 X104.597 Y107.667
G0 X105.753 Y109.485
G0 X107.162 Y111.114
G0 X108.794 Y112.52
G0 X110.615 Y113.669
G0 X112.585 Y114.539
G0 X114.662 Y115.112
G0 X116.8 Y115.372
G0 X118.952 Y115.317
G0 X121.075 Y114.945
G0 X123.12 Y114.267
G0 X125.041 Y113.297
G0 X126.801 Y112.054
G0 X128.358 Y110.567
G0 X129.683 Y108.868
G0 X130.742 Y106.992
G0 X131.515 Y104.982
G0 X131.893 Y103.28
G0 X132.746 Y99.082
G0 X132.819 Y99.15
;TYPE:WALL-INNER
G1 F3600 E24.79165
G1 F1800 X132.835 Y99.364 E24.80236
G1 X132.88 Y99.966 E24.83248
G1 X132.9 Y100.755 E24.87185
G1 X132.881 Y101.51 E24.90953
G1 X132.826 Y102.257 E24.9469
G1 X132.732 Y103.019 E24.98521
G1 X132.606 Y103.75 E25.02221
G1 X132.439 Y104.492 E25.06016
G1 X132.241 Y105.207 E25.09717
G1 X132 Y105.937 E25.13553
G1 X131.729 Y106.639 E25.17307
G1 X131.419 Y107.338 E25.21122
G1 X131.084 Y108.005 E25.24845
G1 X130.717 Y108.655 E25.28569
G1 X130.308 Y109.301 E25.32384
G1 X129.866 Y109.927 E25.36207
G1 X129.407 Y110.516 E25.39933
G1 X128.92 Y111.081 E25.43654
G1 X128.393 Y111.636 E25.47472
G1 X127.832 Y112.169 E25.51333
G1 X127.27 Y112.654 E25.55037
G1 X126.68 Y113.115 E25.58772
G1 X126.06 Y113.551 E25.62554
G1 X125.411 Y113.963 E25.66389
G1 X124.762 Y114.33 E25.70108
G1 X124.089 Y114.669 E25.73868
G1 X123.39 Y114.979 E25.77683
G1 X122.688 Y115.25 E25.81437
G1 X121.961 Y115.49 E25.85257
G1 X121.242 Y115.689 E25.88979
G1 X120.505 Y115.855 E25.92748
G1 X119.769 Y115.982 E25.96474
G1 X119.005 Y116.077 E26.00315
G1 X118.262 Y116.131 E26.04031
G1 X117.5 Y116.15 E26.07834
G1 X116.74 Y116.131 E26.11627
G1 X115.993 Y116.076 E26.15364
G1 X115.231 Y115.982 E26.19194
G1 X114.495 Y115.855 E26.22921
G1 X113.758 Y115.689 E26.2669
G1 X113.039 Y115.49 E26.30412
G1 X112.312 Y115.25 E26.34231
G1 X111.61 Y114.979 E26.37985
G1 X110.911 Y114.669 E26.418
G1 X110.238 Y114.33 E26.4556
G1 X109.589 Y113.963 E26.49279
G1 X108.94 Y113.551 E26.53115
G1 X108.32 Y113.115 E26.56896
G1 X107.73 Y112.654 E26.60632
G1 X107.168 Y112.169 E26.64335
G1 X106.607 Y111.636 E26.68196
G1 X106.08 Y111.081 E26.72014
G1 X105.593 Y110.516 E26.75735
G1 X105.134 Y109.927 E26.79461
G1 X104.692 Y109.301 E26.83284
G1 X104.283 Y108.655 E26.87099
G1 X103.916 Y108.005 E26.90823
G1 X103.581 Y107.338 E26.94547
G1 X103.271 Y106.639 E26.98361
G1 X103 Y105.937 E27.02116
G1 X102.759 Y105.207 E27.05951
G1 X102.561 Y104.492 E27.09652
G1 X102.394 Y103.75 E27.13447
G1 X102.268 Y103.019 E27.17148
G1 X102.173 Y102.255 E27.20989
G1 X102.119 Y101.512 E27.24705
G1 X102.1 Y100.765 E27.28433
G1 X102.121 Y99.959 E27.32456
G1 X102.167 Y99.364 E27.35433
G1 X102.183 Y99.15 E27.36504
G1 X101.969 Y99.15 E27.3718
G1 X101.968 Y99.15 E27.37185
G1 X99.1 Y99.15 E27.51493
G1 X99.1 Y87.15 E28.11361
G1 X87.1 Y87.15 E28.7123
G1 X87.1 Y84.35 E28.85199
G1 X102.9 Y84.35 E29.64025
G1 X102.9 Y100.35 E30.4385
G1 X102.91 Y100.35 E30.439
G1 X102.9 Y100.767 E30.45981
G1 X102.918 Y101.484 E30.49559
G1 X102.972 Y102.199 E30.53136
G1 X103.06 Y102.91 E30.5671
G1 X103.185 Y103.616 E30.60287
G1 X103.343 Y104.316 E30.63868
G1 X103.534 Y105.004 E30.6743
G1 X103.759 Y105.685 E30.71008
G1 X104.019 Y106.355 E30.74594
G1 X104.309 Y107.008 E30.78158
G1 X104.632 Y107.649 E30.81739
G1 X104.987 Y108.271 E30.85312
G1 X105.371 Y108.876 E30.88887
G1 X105.785 Y109.462 E30.92467
G1 X106.226 Y110.025 E30.96035
G1 X106.695 Y110.568 E30.99614
G1 X107.19 Y111.086 E31.03189
G1 X107.708 Y111.579 E31.06757
G1 X108.251 Y112.047 E31.10333
G1 X108.817 Y112.488 E31.13913
G1 X109.404 Y112.9 E31.17491
G1 X110.01 Y113.281 E31.21062
G1 X110.633 Y113.634 E31.24634
G1 X111.275 Y113.956 E31.28218
G1 X111.929 Y114.245 E31.31785
G1 X112.598 Y114.502 E31.3536
G1 X113.279 Y114.727 E31.38938
G1 X113.97 Y114.916 E31.42512
G1 X114.669 Y115.073 E31.46087
G1 X115.376 Y115.194 E31.49665
G1 X116.087 Y115.281 E31.53239
G1 X116.801 Y115.333 E31.5681
G1 X117.517 Y115.35 E31.60384
G1 X118.234 Y115.332 E31.63962
G1 X118.949 Y115.278 E31.67539
G1 X119.66 Y115.189 E31.71114
G1 X120.366 Y115.065 E31.7469
G1 X121.066 Y114.907 E31.7827
G1 X121.754 Y114.716 E31.81833
G1 X122.435 Y114.491 E31.85411
G1 X123.105 Y114.231 E31.88996
G1 X123.758 Y113.941 E31.92561
G1 X124.399 Y113.618 E31.96142
G1 X125.021 Y113.263 E31.99715
G1 X125.626 Y112.88 E32.03287
G1 X126.212 Y112.466 E32.06867
G1 X126.776 Y112.024 E32.10442
G1 X127.318 Y111.555 E32.14018
G1 X127.836 Y111.06 E32.17592
G1 X128.329 Y110.541 E32.21163
G1 X128.797 Y109.998 E32.2474
G1 X129.238 Y109.433 E32.28316
G1 X129.65 Y108.846 E32.31894
G1 X130.031 Y108.24 E32.35465
G1 X130.384 Y107.617 E32.39037
G1 X130.706 Y106.975 E32.4262
G1 X130.995 Y106.321 E32.46188
G1 X131.252 Y105.652 E32.49763
G1 X131.477 Y104.971 E32.53341
G1 X131.666 Y104.28 E32.56915
G1 X131.823 Y103.581 E32.60489
G1 X131.944 Y102.874 E32.64068
G1 X132.031 Y102.163 E32.67642
G1 X132.083 Y101.449 E32.71213
G1 X132.1 Y100.749 E32.74707
G1 X132.088 Y100.35 E32.76698
G1 X132.1 Y100.35
G1 X132.1 Y84.35 E33.56522
G1 X147.9 Y84.35 E34.35349
G1 X147.9 Y87.15 E34.49318
G1 X135.9 Y87.15 E35.09186
G1 X135.9 Y99.15 E35.69055
G1 X133.034 Y99.15 E35.83353
G1 X133.033 Y99.15 E35.83358
G1 X132.819 Y99.15 E35.84034
G0 F3600 X132.746 Y99.082
G0 X131.704 Y104.289
G0 X131.031 Y106.336
G0 X130.065 Y108.26
G0 X128.827 Y110.023
G0 X127.344 Y111.584
G0 X125.648 Y112.913
G0 X123.775 Y113.977
G0 X121.765 Y114.754
G0 X119.665 Y115.228
G0 X117.517 Y115.39
G0 X115.371 Y115.233
G0 X113.268 Y114.765
G0 X111.258 Y113.992
G0 X109.382 Y112.933
G0 X107.682 Y111.608
G0 X106.196 Y110.05
G0 X104.953 Y108.291
G0 X103.983 Y106.37
G0 X103.434 Y104.714
G0 X102.248 Y99.588
G0 X101.751 Y99.55
;TYPE:WALL-OUTER
G1 F1800 X101.721 Y99.55 E35.84184
G1 X101.715 Y99.55 E35.84214
G1 X98.7 Y99.55 E35.99256
G1 X98.7 Y87.55 E36.59124
G1 X86.7 Y87.55 E37.18992
G1 X86.7 Y83.95 E37.36953
G1 X103.3 Y83.95 E38.1977
G1 X103.3 Y99.95 E38.99595
G1 X103.325 Y99.95 E38.99719
G1 X103.318 Y100.036 E38.99947
G1 X103.3 Y100.767 E39.03595
G1 X103.318 Y101.464 E39.07074
G1 X103.37 Y102.159 E39.10551
G1 X103.456 Y102.851 E39.1403
G1 X103.577 Y103.537 E39.17505
G1 X103.731 Y104.218 E39.20988
G1 X103.917 Y104.888 E39.24457
G1 X104.136 Y105.55 E39.27936
G1 X104.388 Y106.201 E39.31419
G1 X104.671 Y106.837 E39.34892
G1 X104.985 Y107.46 E39.38372
G1 X105.33 Y108.065 E39.41847
G1 X105.703 Y108.653 E39.45321
G1 X106.106 Y109.223 E39.48804
G1 X106.535 Y109.771 E39.52276
G1 X106.991 Y110.299 E39.55756
G1 X107.472 Y110.803 E39.59232
G1 X107.977 Y111.282 E39.62705
G1 X108.505 Y111.738 E39.66185
G1 X109.055 Y112.166 E39.69662
G1 X109.626 Y112.567 E39.73143
G1 X110.215 Y112.938 E39.76616
G1 X110.821 Y113.281 E39.8009
G1 X111.445 Y113.594 E39.83573
G1 X112.082 Y113.875 E39.87046
G1 X112.733 Y114.125 E39.90526
G1 X113.395 Y114.344 E39.94004
G1 X114.067 Y114.528 E39.9748
G1 X114.747 Y114.68 E40.00957
G1 X115.434 Y114.798 E40.04434
G1 X116.126 Y114.883 E40.07913
G1 X116.82 Y114.933 E40.11384
G1 X117.517 Y114.95 E40.14862
G1 X118.214 Y114.932 E40.18341
G1 X118.909 Y114.88 E40.21818
G1 X119.601 Y114.793 E40.25298
G1 X120.287 Y114.673 E40.28772
G1 X120.968 Y114.519 E40.32255
G1 X121.638 Y114.333 E40.35724
G1 X122.3 Y114.114 E40.39203
G1 X122.951 Y113.862 E40.42686
G1 X123.587 Y113.579 E40.46159
G1 X124.21 Y113.265 E40.49639
G1 X124.815 Y112.92 E40.53114
G1 X125.403 Y112.547 E40.56588
G1 X125.973 Y112.145 E40.60068
G1 X126.522 Y111.715 E40.63547
G1 X127.049 Y111.259 E40.67024
G1 X127.553 Y110.778 E40.705
G1 X128.032 Y110.273 E40.73972
G1 X128.488 Y109.744 E40.77457
G1 X128.916 Y109.195 E40.80929
G1 X129.317 Y108.624 E40.84411
G1 X129.688 Y108.035 E40.87883
G1 X130.031 Y107.429 E40.91357
G1 X130.344 Y106.805 E40.9484
G1 X130.625 Y106.168 E40.98314
G1 X130.875 Y105.517 E41.01793
G1 X131.094 Y104.855 E41.05272
G1 X131.278 Y104.183 E41.08748
G1 X131.43 Y103.503 E41.12224
G1 X131.548 Y102.816 E41.15702
G1 X131.633 Y102.124 E41.1918
G1 X131.683 Y101.43 E41.22651
G1 X131.7 Y100.75 E41.26045
G1 X131.675 Y99.95 E41.30038
G1 X131.7 Y99.95 E41.30163
G1 X131.7 Y83.95 E42.09987
G1 X148.3 Y83.95 E42.92805
G1 X148.3 Y87.55 E43.10765
G1 X136.3 Y87.55 E43.70634
G1 X136.3 Y99.55 E44.30502
G1 X133.465 Y99.55 E44.44646
G1 X133.464 Y99.55 E44.44651
G1 X133.25 Y99.55 E44.45718
G1 X133.265 Y99.764 E44.46397
G1 X133.28 Y99.956 E44.47358
G1 X133.3 Y100.745 E44.51296
G1 X133.281 Y101.53 E44.55213
G1 X133.224 Y102.294 E44.59035
G1 X133.128 Y103.074 E44.62956
G1 X132.998 Y103.827 E44.66768
G1 X132.828 Y104.585 E44.70644
G1 X132.621 Y105.332 E44.74511
G1 X132.378 Y106.068 E44.78378
G1 X132.095 Y106.801 E44.82298
G1 X131.785 Y107.501 E44.86118
G1 X131.432 Y108.202 E44.90033
G1 X131.055 Y108.869 E44.93856
G1 X130.635 Y109.532 E44.97771
G1 X130.193 Y110.158 E45.01595
G1 X129.71 Y110.777 E45.05512
G1 X129.21 Y111.357 E45.09332
G1 X128.676 Y111.919 E45.132
G1 X128.107 Y112.46 E45.17117
G1 X127.527 Y112.96 E45.20937
G1 X126.916 Y113.437 E45.24804
G1 X126.274 Y113.889 E45.28722
G1 X125.619 Y114.305 E45.32593
G1 X124.952 Y114.682 E45.36415
